; generated by Slic3r 1.2.9 on 2018-02-18 at 00:37:17

; external perimeters extrusion width = 0.80mm
; perimeters extrusion width = 0.97mm
; infill extrusion width = 0.97mm
; solid infill extrusion width = 0.97mm
; top infill extrusion width = 0.97mm

M107
M190 S55 ; set bed temperature
M109 S200
G28 ; home all axes
G29 ; mess bed leveling
G91 ; relative position
G1 Z5 F5000 ; lift nozzle
G90 ; aboslute position
G1 X0 Y0 F10000 ; go to bed conner
G1 E100 FG100; prime hotend
G92 E0
G21 ; set units to millimeters
G90 ; use absolute coordinates
M82 ; use absolute distances for extrusion
G92 E0
G1 E-2.00000 F6000.00000
G92 E0
G1 Z1.000 F7800.000
G1 X79.748 Y65.177 F7800.000
G1 Z0.600 F7800.000
G1 E2.00000 F6000.00000
G1 X81.534 Y63.470 E2.51616 F2160.000
G1 X83.769 Y62.419 E3.03232
G1 X85.504 Y62.133 E3.39983
G1 X108.211 Y61.034 E8.15075
G1 X110.168 Y61.025 E8.55968
G1 X111.130 Y61.085 E8.76110
G1 X112.703 Y61.284 E9.09243 F2160.000
G1 X113.650 Y61.464 E9.29389
G1 X115.185 Y61.859 E9.62521
G1 X116.102 Y62.157 E9.82658
G1 X117.576 Y62.740 E10.15792
G1 X118.248 Y63.044 E10.31196
G1 X159.695 Y84.258 E20.04218
G1 X160.804 Y84.868 E20.30669
G1 X161.425 Y85.257 E20.45984
G1 X162.461 Y85.986 E20.72455
G1 X163.443 Y86.786 E20.98926
G1 X164.367 Y87.652 E21.25396
G1 X164.739 Y88.038 E21.36594
G1 X165.573 Y88.991 E21.63064
G1 X166.338 Y90.001 E21.89537
G1 X166.747 Y90.608 E22.04836
G1 X167.397 Y91.696 E22.31317
G1 X167.968 Y92.825 E22.57758
G1 X168.186 Y93.314 E22.68956
G1 X168.643 Y94.496 E22.95428
G1 X168.870 Y95.193 E23.10749
G1 X169.194 Y96.415 E23.37173
G1 X169.305 Y96.939 E23.48364
G1 X169.487 Y98.021 E23.71300
G1 X171.639 Y114.897 E27.26820
G1 X171.785 Y116.968 E27.70219
G1 X171.785 Y117.932 E27.90353
G1 X171.686 Y119.514 E28.23485
G1 X171.565 Y120.471 E28.43636
G1 X171.268 Y122.028 E28.76768
G1 X171.028 Y122.961 E28.96904
G1 X170.556 Y124.413 E29.28795
G1 X170.183 Y125.366 E29.50190
G1 X169.508 Y126.800 E29.83322
G1 X169.044 Y127.645 E30.03458
G1 X168.194 Y128.984 E30.36593
G1 X167.628 Y129.763 E30.56733
G1 X166.617 Y130.985 E30.89867
G1 X165.957 Y131.687 E31.10007
G1 X164.802 Y132.773 E31.43141
G1 X164.059 Y133.387 E31.63282
G1 X162.776 Y134.319 E31.96417
G1 X161.963 Y134.835 E32.16556
G1 X160.573 Y135.599 E32.49692
G1 X159.701 Y136.010 E32.69841
G1 X158.227 Y136.593 E33.02973
G1 X157.310 Y136.891 E33.23108
G1 X155.775 Y137.286 E33.56242
G1 X104.466 Y148.160 E44.52311
G1 X102.875 Y148.327 E44.85730
G1 X85.875 Y148.327 E48.40995
G1 X83.438 Y147.930 E48.92611
G1 X81.252 Y146.778 E49.44227
G1 X79.546 Y144.993 E49.95843
G1 X78.495 Y142.758 E50.47459
G1 X78.200 Y140.651 E50.91910
G1 X78.200 Y69.800 E65.72562
G1 X78.597 Y67.362 E66.24178
G1 X79.692 Y65.283 E66.73286
G1 X80.447 Y65.709 F7800.000
G1 X80.580 Y65.474 E66.78921 F2160.000
G1 X82.340 Y63.947 E67.27619
G1 X85.545 Y62.970 E67.97632
G1 X108.252 Y61.870 E72.72724
G1 X110.168 Y61.862 E73.12769
G1 X111.025 Y61.916 E73.30713
G1 X112.598 Y62.115 E73.63846 F2160.000
G1 X113.441 Y62.276 E73.81793
G1 X114.977 Y62.670 E74.14925
G1 X115.794 Y62.935 E74.32865
G1 X117.268 Y63.519 E74.65998
G1 X117.866 Y63.790 E74.79721
G1 X159.207 Y84.948 E84.50247
G1 X159.948 Y85.341 E84.67763
G1 X160.981 Y85.967 E84.93013
G1 X161.377 Y86.234 E85.02987
G1 X162.344 Y86.957 E85.28215
G1 X162.904 Y87.428 E85.43515
G1 X163.785 Y88.255 E85.68764
G1 X164.607 Y89.142 E85.94041
G1 X165.363 Y90.084 E86.19278
G1 X166.053 Y91.076 E86.44533
G1 X166.669 Y92.110 E86.69684
G1 X166.895 Y92.535 E86.79737
G1 X167.409 Y93.628 E87.04989
G1 X167.846 Y94.755 E87.30239
G1 X168.073 Y95.452 E87.45556
G1 X168.381 Y96.618 E87.70763
G1 X168.480 Y97.084 E87.80733
G1 X168.656 Y98.127 E88.02832
G1 X170.808 Y115.003 E91.58353
G1 X170.949 Y117.021 E92.00631
G1 X170.949 Y117.879 E92.18567
G1 X170.849 Y119.462 E92.51699
G1 X170.742 Y120.314 E92.69651
G1 X170.445 Y121.871 E93.02783
G1 X170.231 Y122.703 E93.20722
G1 X169.741 Y124.211 E93.53858
G1 X169.425 Y125.009 E93.71809
G1 X168.750 Y126.444 E94.04941
G1 X168.336 Y127.196 E94.22880
G1 X167.487 Y128.535 E94.56014
G1 X166.982 Y129.229 E94.73956
G1 X166.010 Y130.405 E95.05846
G1 X165.384 Y131.077 E95.25030
G1 X164.228 Y132.162 E95.58163
G1 X163.567 Y132.709 E95.76106
G1 X162.284 Y133.641 E96.09241
G1 X161.559 Y134.101 E96.27181
G1 X160.170 Y134.865 E96.60317
G1 X159.392 Y135.231 E96.78267
G1 X157.918 Y135.815 E97.11399
G1 X157.102 Y136.080 E97.29336
G1 X155.566 Y136.474 E97.62471
G1 X104.292 Y147.341 E108.57793
G1 X102.875 Y147.489 E108.87565
G1 X85.875 Y147.489 E112.42830
G1 X83.579 Y147.092 E112.91528
G1 X81.550 Y145.947 E113.40226
G1 X80.022 Y144.187 E113.88924
G1 X79.175 Y142.016 E114.37622
G1 X79.038 Y140.651 E114.66286
G1 X79.038 Y69.800 E129.46937
G1 X79.435 Y67.504 E129.95636
G1 X80.388 Y65.814 E130.36191
G1 F6240
G1 X80.580 Y65.474 E130.00601
G1 F6240
G1 X81.857 Y64.366 E128.46191
G1 E128.36191 F6000.00000
G92 E0
G1 Z1.600 F7800.000
G1 X103.502 Y91.777 F7800.000
G1 Z0.600 F7800.000
G1 E2.00000 F6000.00000
G1 X104.028 Y91.395 E2.13592 F1440.000
G1 X104.389 Y91.076 E2.23653
G1 X104.674 Y90.926 E2.30373
G1 X104.987 Y90.699 E2.38463
G1 X105.780 Y90.345 E2.56616
G1 X106.263 Y90.092 E2.67998
G1 X106.456 Y90.045 E2.72156
G1 X106.663 Y89.952 E2.76898
G1 X108.458 Y89.571 E3.15243
G1 X110.293 Y89.571 E3.53589 F1440.000
G1 X112.088 Y89.952 E3.91935
G1 X112.295 Y90.045 E3.96676
G1 X112.488 Y90.092 E4.00834
G1 X112.970 Y90.345 E4.12217
G1 X113.764 Y90.699 E4.30369
G1 X114.077 Y90.926 E4.38460
G1 X114.362 Y91.076 E4.45180
G1 X114.722 Y91.395 E4.55241
G1 X115.248 Y91.777 E4.68833
G1 X115.622 Y92.192 E4.80489
G1 X115.946 Y92.479 E4.89540
G1 X116.161 Y92.791 E4.97466
G1 X116.476 Y93.141 E5.07301
G1 X116.852 Y93.792 E5.23012
G1 X117.148 Y94.221 E5.33896
G1 X117.240 Y94.465 E5.39355
G1 X117.394 Y94.730 E5.45753
G1 X117.708 Y95.697 E5.66994
G1 X117.876 Y96.140 E5.76893
G1 X117.966 Y96.524 E5.85135
G1 X118.152 Y98.300 E6.22462
G1 X117.966 Y100.076 E6.59789
G1 X117.876 Y100.460 E6.68031
G1 X117.708 Y100.903 E6.77931
G1 X117.394 Y101.870 E6.99172
G1 X117.240 Y102.135 E7.05569
G1 X117.148 Y102.379 E7.11029
G1 X116.852 Y102.808 E7.21913
G1 X116.476 Y103.459 E7.37623
G1 X116.161 Y103.809 E7.47459
G1 X115.946 Y104.121 E7.55384
G1 X115.622 Y104.408 E7.64435
G1 X115.248 Y104.822 E7.76092
G1 X114.722 Y105.205 E7.89684
G1 X114.362 Y105.524 E7.99745
G1 X114.077 Y105.673 E8.06465
G1 X113.764 Y105.901 E8.14555
G1 X112.970 Y106.254 E8.32708
G1 X112.488 Y106.507 E8.44090
G1 X112.295 Y106.555 E8.48248
G1 X112.088 Y106.647 E8.52990
G1 X110.293 Y107.029 E8.91336
G1 X108.458 Y107.029 E9.29681
G1 X106.663 Y106.647 E9.68027
G1 X106.456 Y106.555 E9.72769
G1 X106.263 Y106.507 E9.76927
G1 X105.780 Y106.254 E9.88309
G1 X104.987 Y105.901 E10.06461
G1 X104.674 Y105.673 E10.14552
G1 X104.389 Y105.524 E10.21272
G1 X104.028 Y105.205 E10.31333
G1 X103.502 Y104.822 E10.44925
G1 X103.129 Y104.408 E10.56581
G1 X102.805 Y104.121 E10.65632
G1 X102.589 Y103.809 E10.73558
G1 X102.275 Y103.459 E10.83393
G1 X101.899 Y102.808 E10.99104
G1 X101.603 Y102.379 E11.09988
G1 X101.510 Y102.135 E11.15448
G1 X101.357 Y101.870 E11.21845
G1 X101.043 Y100.903 E11.43086
G1 X100.875 Y100.460 E11.52986
G1 X100.785 Y100.076 E11.61227
G1 X100.598 Y98.300 E11.98554
G1 X100.785 Y96.524 E12.35882
G1 X100.875 Y96.140 E12.44123
G1 X101.043 Y95.697 E12.54023
G1 X101.357 Y94.730 E12.75264
G1 X101.510 Y94.465 E12.81661
G1 X101.603 Y94.221 E12.87121
G1 X101.899 Y93.792 E12.98005
G1 X102.275 Y93.141 E13.13716
G1 X102.589 Y92.791 E13.23551
G1 X102.805 Y92.479 E13.31477
G1 X103.129 Y92.192 E13.40528
G1 X103.422 Y91.866 E13.49677
G1 X103.983 Y92.371 F7800.000
G1 X104.502 Y91.984 E13.60517 F720.000
G1 X104.821 Y91.701 E13.67655
G1 X105.073 Y91.569 E13.72423
G1 X105.366 Y91.356 E13.78495
G1 X106.109 Y91.025 E13.92119
G1 X106.532 Y90.803 E14.00112
G1 X106.701 Y90.761 E14.03032
G1 X106.897 Y90.674 E14.06626
G1 X108.537 Y90.325 E14.34694
G1 X110.213 Y90.325 E14.62762 F720.000
G1 X111.853 Y90.674 E14.90830
G1 X112.049 Y90.761 E14.94424
G1 X112.218 Y90.803 E14.97344
G1 X112.641 Y91.025 E15.05337
G1 X113.384 Y91.356 E15.18961
G1 X113.678 Y91.569 E15.25033
G1 X113.930 Y91.701 E15.29801
G1 X114.249 Y91.984 E15.36939
G1 X114.741 Y92.341 E15.47112
G1 X115.089 Y92.728 E15.55837
G1 X115.377 Y92.983 E15.62269
G1 X115.568 Y93.260 E15.67900
G1 X115.862 Y93.587 E15.75268
G1 X116.214 Y94.196 E15.87037
G1 X116.475 Y94.574 E15.94733
G1 X116.557 Y94.789 E15.98593
G1 X116.700 Y95.039 E16.03411
G1 X116.996 Y95.947 E16.19407
G1 X117.152 Y96.360 E16.26809
G1 X117.220 Y96.650 E16.31782
G1 X117.394 Y98.300 E16.59567
G1 X117.220 Y99.950 E16.87353
G1 X117.152 Y100.239 E16.92326
G1 X116.996 Y100.653 E16.99727
G1 X116.700 Y101.561 E17.15723
G1 X116.557 Y101.810 E17.20541
G1 X116.475 Y102.026 E17.24402
G1 X116.214 Y102.404 E17.32097
G1 X115.862 Y103.013 E17.43866
G1 X115.568 Y103.340 E17.51235
G1 X115.377 Y103.617 E17.56866
G1 X115.089 Y103.871 E17.63297
G1 X114.741 Y104.259 E17.72022
G1 X114.249 Y104.616 E17.82195
G1 X113.930 Y104.899 E17.89333
G1 X113.678 Y105.031 E17.94101
G1 X113.384 Y105.244 E18.00174
G1 X112.641 Y105.575 E18.13797
G1 X112.219 Y105.797 E18.21791
G1 X112.049 Y105.839 E18.24710
G1 X111.853 Y105.926 E18.28304
G1 X110.213 Y106.274 E18.56372
G1 X108.537 Y106.274 E18.84440
G1 X106.897 Y105.926 E19.12508
G1 X106.701 Y105.839 E19.16102
G1 X106.532 Y105.797 E19.19022
G1 X106.109 Y105.575 E19.27015
G1 X105.366 Y105.244 E19.40639
G1 X105.073 Y105.031 E19.46711
G1 X104.821 Y104.899 E19.51479
G1 X104.502 Y104.616 E19.58617
G1 X104.010 Y104.259 E19.68790
G1 X103.661 Y103.871 E19.77515
G1 X103.374 Y103.617 E19.83947
G1 X103.183 Y103.340 E19.89578
G1 X102.888 Y103.013 E19.96946
G1 X102.537 Y102.404 E20.08715
G1 X102.276 Y102.026 E20.16411
G1 X102.194 Y101.810 E20.20271
G1 X102.050 Y101.561 E20.25089
G1 X101.755 Y100.653 E20.41085
G1 X101.598 Y100.239 E20.48487
G1 X101.530 Y99.950 E20.53460
G1 X101.357 Y98.300 E20.81245
G1 X101.530 Y96.650 E21.09031
G1 X101.598 Y96.360 E21.14004
G1 X101.755 Y95.947 E21.21405
G1 X102.050 Y95.039 E21.37401
G1 X102.194 Y94.789 E21.42219
G1 X102.276 Y94.574 E21.46080
G1 X102.537 Y94.196 E21.53775
G1 X102.888 Y93.587 E21.65544
G1 X103.183 Y93.260 E21.72913
G1 X103.374 Y92.983 E21.78544
G1 X103.661 Y92.728 E21.84975
G1 X103.902 Y92.461 E21.91009
G1 X103.865 Y91.735 F7800.000
G1 X107.630 Y88.890 F7800.000
G1 X106.868 Y89.052 E22.07278 F540.000
G1 X107.213 Y88.469 E22.21438
G1 X107.277 Y88.248 E22.26241
G1 X107.817 Y88.334 E22.37664
G1 X108.070 Y88.416 E22.43221 F540.000
G1 X108.050 Y88.801 E22.51281
G1 X107.747 Y88.866 E22.57750
G1 X115.438 Y85.241 F7800.000
G1 X115.583 Y84.955 E22.64443 F540.000
G1 X115.709 Y84.782 E22.68917
G1 X115.840 Y84.451 E22.76357
G1 X116.300 Y83.550 E22.97500
G1 X116.656 Y81.300 E23.45101
G1 X116.324 Y79.202 E23.89488
G1 X116.545 Y79.138 E23.94295
G1 X117.366 Y78.652 E24.14241
G1 X118.041 Y77.977 E24.34189
G1 X118.527 Y77.155 E24.54140
G1 X118.764 Y76.339 E24.71903
G1 X119.257 Y77.387 E24.96113
G1 X119.670 Y78.657 E25.24007 F540.000
G1 X119.920 Y79.968 E25.51899
G1 X120.004 Y81.300 E25.79793
G1 X119.920 Y82.632 E26.07686
G1 X119.670 Y83.943 E26.35579
G1 X119.257 Y85.213 E26.63473
G1 X118.689 Y86.420 E26.91366
G1 X117.974 Y87.547 E27.19260
G1 X117.123 Y88.576 E27.47153
G1 X116.150 Y89.489 E27.75046
G1 X114.888 Y90.406 E28.07639
G1 X114.520 Y90.213 E28.16329
G1 X114.185 Y89.969 E28.24988
G1 X113.336 Y89.591 E28.44417
G1 X112.787 Y89.303 E28.57361
G1 X112.568 Y89.249 E28.62089
G1 X112.348 Y89.151 E28.67115
G1 X110.662 Y88.793 E29.03132
G1 X110.673 Y88.375 E29.11869
G1 X111.625 Y88.224 E29.32015
G1 X113.655 Y87.190 E29.79618
G1 X114.370 Y86.475 E30.00757
G1 X114.644 Y86.248 E30.08196
G1 X114.770 Y86.075 E30.12672
G1 X115.265 Y85.579 E30.27309
G1 X115.384 Y85.348 E30.32746
G1 X114.637 Y84.967 F7800.000
G1 X114.579 Y85.081 E30.35409 F1440.000
G1 X114.131 Y85.529 E30.48651
G1 X114.029 Y85.670 E30.52292
G1 X113.806 Y85.855 E30.58346
G1 X113.156 Y86.504 E30.77537
G1 X111.363 Y87.418 E31.19595
G1 X109.375 Y87.732 E31.61653
G1 X108.468 Y87.589 E31.80846
G1 X108.179 Y87.571 E31.86898
G1 X108.013 Y87.517 E31.90538
G1 X107.388 Y87.418 E32.03782
G1 X106.657 Y87.045 E32.20907
G1 X106.646 Y87.420 E32.28745
G1 X106.438 Y88.134 E32.44269
G1 X106.060 Y88.773 E32.59795
G1 X105.535 Y89.299 E32.75321
G1 X104.895 Y89.677 E32.90845
G1 X104.182 Y89.884 E33.06370
G1 X103.440 Y89.907 E33.21895
G1 X102.715 Y89.745 E33.37420
G1 X102.053 Y89.408 E33.52946
G1 X101.495 Y88.917 E33.68471
G1 X101.078 Y88.302 E33.83996
G1 X100.824 Y87.597 E33.99665
G1 X100.761 Y86.834 E34.15648
G1 X100.872 Y86.130 E34.30556
G1 X101.167 Y85.448 E34.46081
G1 X101.623 Y84.861 E34.61604
G1 X102.210 Y84.406 E34.77130
G1 X102.892 Y84.111 E34.92656
G1 X103.618 Y83.996 E35.08034
G1 X103.258 Y83.288 E35.24639
G1 X103.114 Y82.381 E35.43831
G1 X103.042 Y82.100 E35.49885
G1 X103.042 Y81.926 E35.53526
G1 X102.943 Y81.300 E35.66768
G1 X103.042 Y80.674 E35.80009
G1 X103.042 Y80.500 E35.83650
G1 X103.114 Y80.219 E35.89704
G1 X103.258 Y79.312 E36.08896
G1 X104.171 Y77.519 E36.50953
G1 X105.594 Y76.096 E36.93011
G1 X106.413 Y75.679 E37.12204
G1 X106.657 Y75.524 E37.18256
G1 X106.823 Y75.470 E37.21897
G1 X107.388 Y75.182 E37.35141
G1 X108.013 Y75.083 E37.48385
G1 X108.179 Y75.029 E37.52025
G1 X108.468 Y75.011 E37.58077
G1 X109.375 Y74.867 E37.77265
G1 X111.363 Y75.182 E38.19328
G1 X112.071 Y75.543 E38.35934
G1 X112.186 Y74.816 E38.51311
G1 X112.481 Y74.134 E38.66836
G1 X112.936 Y73.547 E38.82360
G1 X113.523 Y73.092 E38.97885
G1 X114.205 Y72.797 E39.13411
G1 X114.910 Y72.685 E39.28320 F1440.000
G1 X115.672 Y72.748 E39.44302
G1 X116.378 Y73.002 E39.59971
G1 X116.992 Y73.420 E39.75498
G1 X117.483 Y73.977 E39.91023
G1 X117.821 Y74.639 E40.06548
G1 X117.983 Y75.364 E40.22074
G1 X117.959 Y76.107 E40.37597
G1 X117.752 Y76.820 E40.53122
G1 X117.374 Y77.460 E40.68648
G1 X116.849 Y77.985 E40.84172
G1 X116.209 Y78.363 E40.99696
G1 X115.496 Y78.570 E41.15221
G1 X115.121 Y78.582 E41.23060
G1 X115.493 Y79.312 E41.40185
G1 X115.808 Y81.300 E41.82241
G1 X115.493 Y83.288 E42.24298
G1 X115.076 Y84.106 E42.43492
G1 X114.969 Y84.375 E42.49546
G1 X114.867 Y84.516 E42.53187
G1 X114.692 Y84.860 E42.61258
G1 X114.019 Y84.518 F7800.000
G1 X113.961 Y84.632 E42.63400 F720.000
G1 X113.556 Y85.037 E42.73003
G1 X113.474 Y85.149 E42.75319
G1 X113.297 Y85.296 E42.79168
G1 X112.707 Y85.886 E42.93141
G1 X111.127 Y86.691 E43.22837
G1 X109.375 Y86.968 E43.52533
G1 X108.551 Y86.838 E43.66506
G1 X108.322 Y86.823 E43.70355
G1 X108.190 Y86.781 E43.72671
G1 X107.624 Y86.691 E43.82274
G1 X107.113 Y86.431 E43.91878
G1 X106.981 Y86.388 E43.94194
G1 X106.787 Y86.265 E43.98043
G1 X105.954 Y85.840 E44.13700
G1 X105.721 Y86.073 E44.19208
G1 X105.791 Y86.210 E44.21795
G1 X105.912 Y86.749 E44.31043
G1 X105.895 Y87.301 E44.40289
G1 X105.740 Y87.832 E44.49536
G1 X105.459 Y88.307 E44.58784
G1 X105.069 Y88.698 E44.68031
G1 X104.593 Y88.979 E44.77278
G1 X104.063 Y89.133 E44.86525
G1 X103.511 Y89.150 E44.95773
G1 X102.972 Y89.030 E45.05020
G1 X102.480 Y88.779 E45.14267
G1 X102.066 Y88.414 E45.23514
G1 X101.755 Y87.957 E45.32762
G1 X101.568 Y87.435 E45.42049
G1 X101.520 Y86.863 E45.51662
G1 X101.603 Y86.342 E45.60491
G1 X101.822 Y85.835 E45.69738
G1 X102.161 Y85.399 E45.78985
G1 X102.597 Y85.060 E45.88232
G1 X103.104 Y84.841 E45.97480
G1 X103.625 Y84.759 E46.06309
G1 X104.197 Y84.806 E46.15923
G1 X105.031 Y85.106 E46.30767
G1 X103.984 Y83.052 E46.69376
G1 X103.854 Y82.227 E46.83348
G1 X103.796 Y82.005 E46.87198
G1 X103.796 Y81.866 E46.89514
G1 X103.707 Y81.300 E46.99117
G1 X103.796 Y80.733 E47.08720
G1 X103.796 Y80.595 E47.11036
G1 X103.854 Y80.372 E47.14886
G1 X103.984 Y79.548 E47.28858
G1 X104.789 Y77.968 E47.58554
G1 X106.043 Y76.714 E47.88250
G1 X106.787 Y76.335 E48.02223
G1 X106.981 Y76.212 E48.06072
G1 X107.113 Y76.169 E48.08388
G1 X107.624 Y75.909 E48.17992
G1 X108.190 Y75.819 E48.27596
G1 X108.322 Y75.776 E48.29911
G1 X108.551 Y75.762 E48.33761
G1 X109.375 Y75.631 E48.47732
G1 X111.127 Y75.909 E48.77430
G1 X113.182 Y76.956 E49.16042
G1 X112.881 Y76.121 E49.30890
G1 X112.834 Y75.549 E49.40503
G1 X112.916 Y75.028 E49.49332
